X: 10821
M: 2/4
L: 1/16
K: Bb
[|\
fecd B2B2 | d2d2 cAF2 | fecd B2B2 | Bcde fgab |\
fecd B2B2 | d2d2 cAF2 | fecd B2B2 | cBcd B4 H|]
f2f2f2f2 | f2ga b2f2 | bagf =efBf | edcB cAG2 |\
f2f2f2f2 | f2ga a2f2 | bagf =egf_e | dfed ccd"^D.C."e |]
"Minor"\


